X: 3415
M: C|
L: 1/8
K: A
(ed) |\
({cd}c2Bc) (ABcA) | a2e2 e2{f}=g2 | ({B=c}B2AB) =GABG | =g2d2 d2(ed) |\
({cd}c2Bc) (ABcA) | a2e2 e2{f}=g2 | dcBA =GABd | c2A2A2 :|
|: (ec) |\


